!!!PDT:	1923
!!!LANG: Non-Tone
!!!LING_GROUP: Siouan
!!!REG: Dakotas
!!!COM: Anon.
!!!OTL: Disguised as a Buffalo
!!!ODT: <1918//
!!!MPN: Obsitamato [Bear-on-the-Flat, Flat Bear]
!!!MLC: Fort Berthold Reservation, North Dakota, United States of America
!! Song was recorded during either the summer of 1912, 1915, or 1918.
!!!AGN: monody
!!!SOCIAL_FUNCTION: Mandan and Hidatsa War Songs
!!!AMT: irregular
!!!RWG: Transcribed pitches, durations, and meters are only approximate.
!! Drum not recorded.
**kern
*ICvox
*Imale
*clefF4
*k[b-e-a-]
*M2/4
*MM66
16g
=1
8B-
8B-
16B-
16B-
8B-
*M3/4
=2
(12e-
12B-)
12B-
(8B-
8A-)
8c
8B-
*M2/4
=3
8B-
8B-
4B-
*M3/4
=4
16e-
8.B-
8B-
8B-
16B-
16B-
16e-
16B-
=5
(16B-
16A-)
16A-
16G
(16A-
16G
16F
16G)
4E-
=6
! added dot:
16.BB-
32F
8F
16F
16F
(32F
16.E-)
4E-
*M2/4
=7
8BB-
[8BB-
4BB-]
=8
8BB-
8BB-
4BB-
==
*-
!!!CNT: Mandan
!!!TXO: Mandan
!!!OCY: United States
!!!OCL: Frances Densmore
!!!YOR: Frances Densmore, "Mandan and Hidatsa Music",
!!!YOR: Bulletin 80, page 164, No. 95
!!!PPR: Smithsonian Institution, Bureau of American Ethnology
!!!PPR: Government Printing Office
!!!PDT: 1923
!!!PPP: Washington, DC, United States of America
!!!YEC: Electronic Copyright 2000 David Huron
!!!YER: August 2000
!!!YEN: United States of America
!!!ENC: David Huron
!!!RDT: August 18, 2000
!!!EEV: Release 1.0
!!!AIN: tom, vox
